svg/emoji_u1f34f.svg

<svg width="128" height="128" viewBox="0 0 128 128" fill="none" xmlns="http://www.w3.org/2000/svg">
<path d="M78.7 52.85L60.22 36.83L67.08 31.73C67.08 31.73 86.99 20.58 105.98 34.02C124.64 47.22 122.88 86.47 108.44 104.42C94 122.37 83.97 123.43 78.52 123.25C73.06 123.07 72.18 120.43 66.9 120.96C61.62 121.49 59.86 124.48 50.18 123.78C41.4 123.14 34.16 119.73 30.64 115.86C27.31 112.18 78.7 52.85 78.7 52.85Z" fill="#6EA517" style="fill:#6EA517;fill:color(display-p3 0.4314 0.6471 0.0902);fill-opacity:1;"/>
<path d="M100.21 34.4C100.21 34.4 92.28 37.82 84.36 38.44C76.43 39.06 62.29 37.97 62.29 37.97C62.29 37.97 60.74 29.73 60.27 29.73C59.8 29.73 38.99 22.49 23.75 33.93C7.68999 45.98 6.10999 69.3801 8.66999 80.55C14.56 106.22 33.45 118.31 33.45 118.31C33.45 118.31 50.32 120.18 71.46 110.86C92.6 101.54 110.9 85.22 110.47 63.31C110 39.99 100.21 34.4 100.21 34.4Z" fill="#87C244" style="fill:#87C244;fill:color(display-p3 0.5294 0.7608 0.2667);fill-opacity:1;"/>
<path d="M37.7002 38.9C34.9902 35.77 27.5502 36.47 21.7702 44.74C15.7502 53.34 15.4802 69.1 20.4402 69.53C24.5102 69.88 25.5502 62.99 28.0502 58.11C32.7502 48.95 43.9002 46.07 37.7002 38.9Z" fill="#BAE59F" style="fill:#BAE59F;fill:color(display-p3 0.7278 0.8980 0.6235);fill-opacity:1;"/>
<path d="M44.25 35.36C43.06 37.84 46.98 43.94 61.62 44.39C77.02 44.86 82.07 36.28 80.31 34.28C78.55 32.28 72.79 35.57 61.86 35.46C50.93 35.35 46.28 31.15 44.25 35.36Z" fill="#59702C" style="fill:#59702C;fill:color(display-p3 0.3490 0.4392 0.1725);fill-opacity:1;"/>
<path d="M51.8598 18.64C50.6798 18.4 45.8698 17.58 45.3898 15.7C45.1698 14.81 46.3298 11.94 49.3898 9.82005C52.4498 7.70005 55.4998 7.12005 56.2098 8.76005C56.9198 10.41 56.6798 11.46 56.6798 11.82C56.6798 12.17 59.0998 15 60.7898 18.64C63.1398 23.69 64.4298 28.63 64.1998 33.69C64.0298 37.35 63.9598 42.51 61.8498 42.15C59.6498 41.78 60.1098 36.62 59.0298 32.98C56.4498 24.29 52.5698 18.79 51.8598 18.64Z" fill="#513532" style="fill:#513532;fill:color(display-p3 0.3176 0.2078 0.1961);fill-opacity:1;"/>
<path d="M82.5899 24.36C82.8299 24.01 107.16 8.73003 107.27 7.79003C107.38 6.85003 94.6999 4.61003 86.7099 7.55003C78.7199 10.49 70.4399 15.22 66.4899 23.42C63.3199 30 63.3199 34.47 64.1399 35.53C64.5299 36.03 82.5899 24.36 82.5899 24.36Z" fill="#2F7C31" style="fill:#2F7C31;fill:color(display-p3 0.1843 0.4863 0.1922);fill-opacity:1;"/>
<path d="M79.8901 23.42C90.6301 16.56 107.28 7.79004 107.28 7.79004C107.28 7.79004 107.78 9.10004 104.58 14.61C100.35 21.9 90.4701 31.3 80.4801 34.24C69.6401 37.43 64.1401 35.53 64.1401 35.53C64.1401 35.53 71.4301 28.83 79.8901 23.42Z" fill="#4C8C19" style="fill:#4C8C19;fill:color(display-p3 0.2980 0.5490 0.0980);fill-opacity:1;"/>
</svg>

<?xml version="1.0" encoding="utf-8"?>
<!-- Generator: Adobe Illustrator 25.2.3, SVG Export Plug-In . SVG Version: 6.00 Build 0)  -->
<svg version="1.1" id="Layer_2" xmlns="http://www.w3.org/2000/svg" xmlns:xlink="http://www.w3.org/1999/xlink" x="0px" y="0px"
	 viewBox="0 0 128 128" style="enable-background:new 0 0 128 128;" xml:space="preserve">
<path style="fill:#6EA517;" d="M78.7,52.85L60.22,36.83l6.86-5.1c0,0,19.91-11.15,38.9,2.29c18.66,13.2,16.9,52.45,2.46,70.4
	s-24.47,19.01-29.92,18.83c-5.46-0.18-6.34-2.82-11.62-2.29c-5.28,0.53-7.04,3.52-16.72,2.82c-8.78-0.64-16.02-4.05-19.54-7.92
	C27.31,112.18,78.7,52.85,78.7,52.85z"/>
<path style="fill:#87C244;" d="M100.21,34.4c0,0-7.93,3.42-15.85,4.04c-7.93,0.62-22.07-0.47-22.07-0.47s-1.55-8.24-2.02-8.24
	c-0.47,0-21.28-7.24-36.52,4.2C7.69,45.98,6.11,69.38,8.67,80.55c5.89,25.67,24.78,37.76,24.78,37.76s16.87,1.87,38.01-7.45
	s39.44-25.64,39.01-47.55C110,39.99,100.21,34.4,100.21,34.4z"/>
<path style="fill:#E5DD9F;" d="M37.7,38.9c-2.71-3.13-10.15-2.43-15.93,5.84c-6.02,8.6-6.29,24.36-1.33,24.79
	c4.07,0.35,5.11-6.54,7.61-11.42C32.75,48.95,43.9,46.07,37.7,38.9z"/>
<path style="fill:#59702C;" d="M44.25,35.36c-1.19,2.48,2.73,8.58,17.37,9.03c15.4,0.47,20.45-8.11,18.69-10.11
	c-1.76-2-7.52,1.29-18.45,1.18S46.28,31.15,44.25,35.36z"/>
<path style="fill:#513532;" d="M51.86,18.64c-1.18-0.24-5.99-1.06-6.47-2.94c-0.22-0.89,0.94-3.76,4-5.88s6.11-2.7,6.82-1.06
	c0.71,1.65,0.47,2.7,0.47,3.06c0,0.35,2.42,3.18,4.11,6.82c2.35,5.05,3.64,9.99,3.41,15.05c-0.17,3.66-0.24,8.82-2.35,8.46
	c-2.2-0.37-1.74-5.53-2.82-9.17C56.45,24.29,52.57,18.79,51.86,18.64z"/>
<path style="fill:#2F7C31;" d="M82.59,24.36c0.24-0.35,24.57-15.63,24.68-16.57S94.7,4.61,86.71,7.55s-16.27,7.67-20.22,15.87
	c-3.17,6.58-3.17,11.05-2.35,12.11C64.53,36.03,82.59,24.36,82.59,24.36z"/>
<path style="fill:#4C8C19;" d="M79.89,23.42c10.74-6.86,27.39-15.63,27.39-15.63s0.5,1.31-2.7,6.82
	c-4.23,7.29-14.11,16.69-24.1,19.63c-10.84,3.19-16.34,1.29-16.34,1.29S71.43,28.83,79.89,23.42z"/>
</svg>
